design/assets/logos/container-registry-bug.svg

<?xml version="1.0" encoding="UTF-8"?>
<svg width="32px" height="32px" viewBox="0 0 32 32" version="1.1" xmlns="http://www.w3.org/2000/svg" xmlns:xlink="http://www.w3.org/1999/xlink">
    <!-- Generator: Sketch 52.6 (67491) - http://www.bohemiancoding.com/sketch -->
    <title>Artboard</title>
    <desc>Created with Sketch.</desc>
    <g id="Artboard" stroke="none" stroke-width="1" fill="none" fill-rule="evenodd">
        <path d="M14.5844212,16.6819556 L17.4223192,16.6819556 L17.4223192,13.8440576 L14.5844212,13.8440576 L14.5844212,16.6819556 Z M11.7461596,19.5202172 L11.7461596,11.005796 L20.2605808,11.005796 L20.2605808,19.5202172 L11.7461596,19.5202172 Z M6.07,5.33 L14.5840576,5.33 L14.5840576,8.167898 L8.9082616,8.167898 L8.9082616,21.6669116 L16.003552,23.680892 L23.0981152,21.6669116 L23.0981152,16.6819556 L25.9363768,16.6819556 L25.9363768,23.8434212 L16.003552,26.6635028 L6.07,23.8434212 L6.07,5.33 Z M23.0981152,13.8440576 L23.0981152,11.005796 L25.9363768,11.005796 L25.9363768,13.8440576 L23.0981152,13.8440576 Z M17.4219556,8.167898 L17.4219556,5.33 L20.2602172,5.33 L20.2602172,8.167898 L17.4219556,8.167898 Z M23.0981152,8.167898 L23.0981152,5.33 L25.9363768,5.33 L25.9363768,8.167898 L23.0981152,8.167898 Z" id="bug" fill="#FFAE1A"></path>
    </g>
</svg>

<svg width="32" height="32" xmlns="http://www.w3.org/2000/svg"><path d="M14.584 16.682h2.838v-2.838h-2.838v2.838zm-2.838 2.838v-8.514h8.515v8.514h-8.515zM6.07 5.33h8.514v2.838H8.908v13.499l7.096 2.014 7.094-2.014v-4.985h2.838v7.161l-9.932 2.82-9.934-2.82V5.33zm17.028 8.514v-2.838h2.838v2.838h-2.838zm-5.676-5.676V5.33h2.838v2.838h-2.838zm5.676 0V5.33h2.838v2.838h-2.838z" fill="#FFAE1A" fill-rule="evenodd"/></svg>
